X: 20312
T: Thro the Long Mair I Follow'd him Home
%R: air, waltz
B: James Oswald "The Caledonian Pocket Companion" v.2 p.31 #2
Z: 2019 John Chambers <jc:trillian.mit.edu>
M: 3/4
L: 1/8
K: Dm
%%slurgraces 1
%%graceslurs 1
|: "_Slow"\
a2 g>f d2 | f2 (d>c) A2 | d2 (cA) (GF) | G4 A2 |\
a2 (Tg>f) d2 | f2 (Td>c) A2 | d2 F2 (TE3/D//E//) |  D6 :|
|:\
F3 G A>c | (G3 A/B/) A2 | f2 e2 d2 | A3 f (Te>d) |\
a3 f (Te>d) | a3 f (Te>d) | g3 a (f>g) | {g}a6 |
a2 Tg>f d2 | f2 (Td>c) A2 | d2 (cA) (TG>F) | {F}G4 A2 |\
a2 (Tg>f) d2 | f2(Td>c) A2 | d2 F2 (TE3/D//E//) | D6 :|


